X:1
T: The Cadger's Roadie
C:Muriel Johnstone
R:Jig
%Q:180
K:F
M:6/8
L:1/16
d2|c2f2f2 A2c2c2|F2A2A2 G2A2B2|c2f2f2 f2e2f2|g6 g2a2b2|a2f2c2 d4f2|d2c2A2 G4c2|F4f2 f2e2f2|a2g2g2 g2e2d2|
c2f2f2 A2c2c2|F2A2A2 G2A2B2|c2f2f2 f2e2f2|g6 g2a2b2|a2f2c2 d4f2|d2c2A2 G4c2|f2e2d2 c4C2|D2F2F2 F4c2|
f2c2c2 g2c2c2|a4c2 A2c2f2|g2c2c2 a2c2c2|b4c2 d2c2B2|A2F2C2 D4F2|d2B2D2 E4e2|f2e2d2 c4C2|D2F2F2 F4c2|
f2c2c2 g2c2c2|a4c2 A2c2f2|g2c2c2 a2c2c2|b4c2 d2c2B2|A2F2C2 D4F2|d2B2D2 E4e2|f2e2d2 c4B2|A2F2F2 F4||
